X: 17
T: Castle Spynie
R:Strathspey
C:J. Scott Skinner
S:MacDonald - Skye Collection
N:pg.56
M:C
L:1/8
K:D
B|A>FG>E F<A d>e|f>ed>f e<E E>B|A>FG>E F<A (d>e)|f>de>c d2d:|
f/g/|a>f g>e f<a dc/d/|e>cd>B c<e Af/g/|a>fg>e f<d B>g|f>de>c (d2 d)f/g/|
a>fg>e f>a dc/d/|e>cd>B c<e Af/g/|(3agf (3edc (3B^c^d (3efg|(3fed (3edc d2d||


